svgs/light/comments-dollar.svg

<svg xmlns="http://www.w3.org/2000/svg" viewBox="0 0 640 512"><!--! Font Awesome Pro 6.3.0 by @fontawesome - https://fontawesome.com License - https://fontawesome.com/license (Commercial License) Copyright 2023 Fonticons, Inc. --><path d="M212.4 160.6L206.8 159C179.7 151 180.5 146.3 181.6 139.8c1.891-10.91 19.22-13.41 34.81-10.91c5.812 .9062 12.22 2.906 18.3 5.031c8.375 2.875 17.47-1.531 20.36-9.875c2.906-8.344-1.516-17.47-9.859-20.38c-8.471-2.934-15.2-4.709-21.25-5.832V88c0-8.838-7.138-16-15.98-16c-8.836 0-16.02 7.162-16.02 16v9.275C169.4 101 153.6 114.2 150.1 134.4C143.3 173.7 181.5 184.9 197.8 189.7l5.781 1.688c28.67 8.188 32.33 11.81 30.77 20.81c-1.891 10.94-19.31 13.34-34.84 10.91C192.2 221.1 183.1 218.7 175.1 215.8L170.6 214.3C162.3 211.3 153.2 215.7 150.2 224C147.3 232.3 151.7 241.5 159.1 244.4l4.279 1.531c8.588 3.086 18.22 6.355 27.72 8.119V264c0 8.836 7.188 16 16.02 16c8.838 0 15.98-7.164 15.98-16V254.3c22.4-3.824 38.41-16.58 41.89-36.66C272.7 177.9 234.1 167.1 212.4 160.6zM606.4 435.4C627.6 407.1 640 372.9 640 336C640 238.8 554 160 448 160c-.3145 0-.6191 .041-.9336 .043C447.5 165.3 448 170.6 448 176c0 5.43-.4668 10.76-.9414 16.09C447.4 192.1 447.7 192 448 192c88.22 0 160 64.6 160 144c0 28.69-9.424 56.45-27.25 80.26l-13.08 17.47l11.49 18.55c6.568 10.61 13.18 19.74 18.61 26.74c-18.26-1.91-36.45-6.625-54.3-14.09l-12.69-5.305l-12.58 5.557C495.9 475 472.3 480 448 480c-75.05 0-137.7-46.91-154.9-109.7c-10.1 3.336-20.5 6.132-31.2 8.271C282.7 455.1 357.1 512 448 512c29.82 0 57.94-6.414 83.12-17.54C555 504.5 583.7 512 616.3 512c9.398 0 17.91-5.57 21.73-14.32c3.74-8.758 1.945-18.84-4.568-25.67C633.3 471.8 619.6 456.8 606.4 435.4zM416 176C416 78.8 322.9 0 208 0S0 78.8 0 176c0 41.48 17.07 79.54 45.44 109.6c-15.17 32.34-38.65 58.07-38.95 58.38c-6.514 6.836-8.309 16.91-4.568 25.67C5.754 378.4 14.26 384 23.66 384c54.19 0 97.76-20.73 125.9-39.17C168.1 349.4 187.7 352 208 352C322.9 352 416 273.2 416 176zM208 320c-16.96 0-34.04-2.098-50.75-6.232L143.7 310.4L132 318.1c-20.43 13.38-51.58 28.99-89.85 32.97c9.377-12.11 22.3-30.63 32.24-51.82l9.242-19.71L68.72 263.7C44.7 238.2 32 207.9 32 176C32 96.6 110.1 32 208 32S384 96.6 384 176S305 320 208 320z"/></svg>

<svg xmlns="http://www.w3.org/2000/svg" viewBox="0 0 640 512"><!-- Font Awesome Pro 6.0.0-alpha2 by @fontawesome - https://fontawesome.com License - https://fontawesome.com/license (Commercial License) --><path d="M212.397 160.594L206.819 159C179.694 151.031 180.506 146.344 181.631 139.812C183.522 128.906 200.85 126.406 216.444 128.906C222.256 129.812 228.663 131.812 234.741 133.938C243.116 136.813 252.209 132.406 255.1 124.062C258.006 115.719 253.584 106.594 245.241 103.687C236.77 100.754 230.04 98.979 223.991 97.855V88C223.991 79.162 216.829 72 207.991 72C199.155 72 191.991 79.162 191.991 88V97.275C169.444 101.035 153.588 114.195 150.102 134.375C143.305 173.719 181.506 184.906 197.803 189.688L203.584 191.375C232.256 199.563 235.913 203.188 234.35 212.188C232.46 223.125 215.038 225.531 199.506 223.094C192.178 221.969 183.1 218.719 175.1 215.844L170.647 214.25C162.319 211.281 153.165 215.688 150.227 224.031C147.29 232.344 151.665 241.5 159.993 244.438L164.272 245.969C172.86 249.055 182.495 252.324 191.991 254.088V264C191.991 272.836 199.155 280 207.991 280C216.829 280 223.991 272.836 223.991 264V254.285C246.391 250.461 262.405 237.701 265.881 217.625C272.741 177.875 234.975 167.062 212.397 160.594ZM606.364 435.439C627.551 407.141 640.001 372.916 640.001 336C640.001 238.797 554.04 160 448.001 160C447.686 160 447.381 160.041 447.067 160.043C447.534 165.328 448.001 170.613 448.001 176C448.001 181.43 447.534 186.76 447.059 192.086C447.381 192.084 447.678 192 448.001 192C536.225 192 608.001 256.598 608.001 336C608.001 364.693 598.577 392.447 580.749 416.26L567.668 433.73L579.157 452.285C585.725 462.893 592.336 472.027 597.77 479.029C579.514 477.119 561.317 472.404 543.467 464.941L530.778 459.637L518.196 465.193C495.95 475.018 472.333 480 448.001 480C372.954 480 310.266 433.086 293.077 370.252C282.973 373.588 272.581 376.383 261.879 378.521C282.659 455.141 357.987 512 448.001 512C477.823 512 505.944 505.586 531.124 494.465C555.028 504.459 583.749 512 616.34 512C625.739 512 634.247 506.43 638.073 497.68C641.813 488.922 640.018 478.844 633.504 472.008C633.278 471.768 619.586 456.795 606.364 435.439ZM416.001 176C416.001 78.797 322.876 0 208.001 0S0.001 78.797 0.001 176C0.001 217.482 17.069 255.541 45.444 285.625C30.278 317.961 6.793 343.691 6.497 344.008C-0.017 350.844 -1.812 360.922 1.928 369.68C5.754 378.43 14.262 384 23.661 384C77.85 384 121.42 363.266 149.561 344.83C168.116 349.422 187.692 352 208.001 352C322.876 352 416.001 273.201 416.001 176ZM208.001 320C191.036 320 173.961 317.902 157.249 313.768L143.7 310.414L132.026 318.062C111.596 331.445 80.446 347.051 42.176 351.035C51.553 338.922 64.479 320.4 74.417 299.213L83.659 279.504L68.723 263.668C44.7 238.197 32.001 207.883 32.001 176C32.001 96.598 110.954 32 208.001 32S384.001 96.598 384.001 176S305.047 320 208.001 320Z"/></svg>
